img/colaboradores-mobile.svg

<svg fill="none" height="50" viewBox="0 0 48 50" width="48" xmlns="http://www.w3.org/2000/svg"><g fill="#b5bd00"><path d="m38.2693 4.17207c.6185 0 1.2231.18344 1.7373.5271s.9149.83211 1.1514 1.40355c.2366.57145.2983 1.20021.1775 1.80676-.1209.60654-.419 1.16361-.8565 1.60074s-.9948.73468-1.6015.85498c-.6066.1203-1.2354.058-1.8066-.1791-.5712-.23703-1.0593-.63819-1.4025-1.1527s-.5261-1.11925-.5255-1.73772c.0015-.82846.3314-1.62252.9175-2.20807s1.3804-.91479 2.2089-.91554zm0 8.33433c1.0306 0 2.038-.3056 2.8949-.8782.8569-.5725 1.5248-1.3863 1.9192-2.33847.3944-.95213.4976-1.99983.2965-3.01061s-.6973-1.93924-1.4261-2.66797c-.7287-.72874-1.6572-1.22501-2.6679-1.42606-1.0108-.20106-2.0585-.09787-3.0106.29652-.9522.39438-1.766 1.06225-2.3385 1.91915-.5726.8569-.8782 1.86434-.8782 2.89492.0015 1.38151.551 2.70602 1.5278 3.68292.9769.9768 2.3014 1.5263 3.6829 1.5278z"/><path d="m47.34 29.8304-1.3358-10.6756c-.1581-1.2591-.77-2.4172-1.7209-3.2574-.951-.8402-2.1757-1.3048-3.4446-1.3066h-5.1458c-.5915.0014-1.1782.1056-1.7341.3079-.2486.1008-.4488.2936-.5588.5382-.1101.2447-.1215.5224-.032.7753s.2731.4615.5126.5825c.2394.1209.5163.1448.773.0668.3332-.121.6848-.184 1.0393-.1864h5.1458c.7623-.0005 1.4985.2773 2.0706.7811.572.5039.9404 1.1993 1.036 1.9556l1.3331 10.6756c.0193.1466.007.2956-.0359.437-.043.1415-.1158.2721-.2134.3831-.0977.111-.2179.1998-.3527.2606-.1348.0607-.2811.0918-.4289.0914h-.7654c-.2633-.0007-.5171.0987-.7101.278-.1929.1793-.3106.4251-.3292.6878l-.9743 13.6185h-6.3998l-.7484-10.4948c-.0068-.1386-.0413-.2744-.1013-.3994-.06-.1251-.1443-.2369-.2481-.329-.1038-.092-.2249-.1624-.3563-.207-.1313-.0446-.2702-.0625-.4086-.0528-.1384.0098-.2734.0471-.3972.1097-.1237.0627-.2337.1494-.3235.2551-.0899.1057-.1577.2283-.1995.3606-.0418.1322-.0568.2715-.0441.4096l.819 11.4608c.0199.2625.1378.5079.3304.6874s.4457.2799.7089.2813h8.3344c.2628-.0001.516-.0998.7083-.279s.3096-.4247.3281-.6869l.9744-13.6298c.4248-.0286.8392-.1436 1.218-.338s.7139-.464.9849-.7923c.271-.3284.4721-.7086.5911-1.1174.119-.4087.1533-.8375.1008-1.26"/><path d="m14.1443 34.6192c-.1369-.0111-.2746.0053-.405.0482-.1304.043-.2509.1116-.3544.2019s-.1878.2004-.248.3239c-.0602.1234-.095.2576-.1025.3947l-.7343 10.2548h-6.39691l-.96872-13.6184c-.02125-.2628-.14049-.5079-.33406-.6868s-.44731-.2786-.7109-.2791h-.76255c-.14779-.0001-.29389-.0316-.42858-.0924-.1347-.0608-.25492-.1496-.35268-.2604-.09775-.1109-.17082-.2413-.21434-.3825-.04351-.1413-.05649-.2901-.03807-.4368l1.33587-10.6756c.09505-.7565.46329-1.4522 1.03543-1.9562.57214-.5041 1.30875-.7816 2.07123-.7805h5.13728c.2656.0049.5295.0438.7851.1158.1324.0351.2705.0437.4062.0254s.2665-.0631.385-.132c.1184-.0688.222-.1603.3051-.2692.083-.1089.1438-.2331.1789-.3655.035-.1324.0437-.2705.0254-.4062s-.0632-.2665-.132-.385c-.0688-.1184-.1603-.2221-.2693-.3051-.1089-.0831-.2331-.1438-.3655-.1789-.4285-.1201-.8711-.1828-1.3161-.1864h-5.14856c-1.26877.0024-2.49318.4672-3.44399 1.3072-.95082.8401-1.56285 1.998-1.72153 3.2568l-1.3386921 10.6756c-.0516271.4223-.01660787.8506.1029181 1.2589.119526.4083.321047.7879.592251 1.1157.271203.3278.606393.5968.985083.7907.37869.1938.79294.3084 1.21741.3367l.97437 13.6213c.01857.263.13613.5092.32899.6889.19286.1798.44668.2798.71032.2798h8.33993c.2635-.0007.5169-.1009.7097-.2805.1927-.1796.3104-.4254.3297-.6882l.802-11.2235c.0187-.275-.072-.5462-.2524-.7546-.1804-.2085-.4358-.3372-.7106-.3581"/><path d="m9.10036 4.17207c.61847 0 1.22304.18344 1.73724.5271s.9149.83211 1.1515 1.40355c.2365.57145.2983 1.20021.1774 1.80676-.1209.60654-.4189 1.16361-.8564 1.60074s-.9949.73468-1.60153.85498c-.60666.1203-1.23537.058-1.8066-.1791-.57123-.23703-1.05931-.63819-1.40251-1.1527s-.52608-1.11925-.52553-1.73772c.0015-.82846.33146-1.62252.91754-2.20807.58607-.58555 1.38043-.91479 2.20889-.91554zm0 8.33433c1.03054 0 2.03804-.3056 2.89494-.8782.8569-.5725 1.5248-1.3863 1.9191-2.33847.3944-.95213.4976-1.99983.2966-3.01061-.2011-1.01078-.6974-1.93924-1.4261-2.66797-.7287-.72874-1.6572-1.22501-2.668-1.42606-1.01076-.20106-2.05846-.09787-3.01059.29652-.95213.39438-1.76594 1.06225-2.3385 1.91915s-.87816 1.86434-.87816 2.89492c.00149 1.38151.55096 2.70602 1.52783 3.68292.97688.9768 2.30138 1.5263 3.68288 1.5278z"/><path d="m30.4483 31.0354c-.0949.1099-.2118.1989-.3431.2611-.1313.0623-.2742.0964-.4194.1004h-.7936c-.2628-.0001-.5158.0991-.7085.2777s-.3109.4233-.3308.6853l-1.1495 15.5644h-6.3969l-1.1466-15.5644c-.0206-.2617-.139-.5061-.3315-.6846-.1926-.1784-.4453-.2778-.7079-.2784h-.7907c-.1457-.0038-.2891-.0378-.4209-.1001-.1317-.0622-.2491-.1513-.3445-.2614-.1324-.1541-.231-.3343-.2894-.5289-.0583-.1946-.0752-.3993-.0495-.6008l1.3782-12.1104c.2118-1.8329 1.6014-3.2111 3.2451-3.2111h5.3152c1.6409 0 3.0332 1.3782 3.245 3.2111l1.3754 12.1047c.0245.2017.0067.4063-.0521.6008-.0588.1944-.1575.3746-.2896.5289zm2.4035-1.3754-1.3839-12.0991c-.3248-2.8863-2.6124-5.0638-5.3096-5.0638h-5.3152c-2.6943.0056-4.9791 2.1916-5.3096 5.0695l-1.381 12.0905c-.0595.4932-.0148.9933.1311 1.4682.146.4748.39.9137.7162 1.2883.2692.3084.5972.5602.9647.7406s.7673.2857 1.176.31l1.1523 15.57c.0179.2625.135.5083.3275.6877.1925.1793.4459.2788.709.2782h8.3485c.2633.0007.5172-.0987.7101-.278s.3106-.4252.3292-.6879l1.1494-15.57c.4089-.0236.8089-.1287 1.1765-.3092.3676-.1804.6955-.4325.9643-.7414.3273-.374.5719-.8128.7179-1.2878s.1901-.9755.1294-1.4687"/><path d="m23.5048 2.08711c.6186-.00056 1.2234.1824 1.738.52572s.9157.83158 1.1527 1.40297c.237.5714.2991 1.20025.1786 1.80698-.1206.60673-.4184 1.16407-.8558 1.60148s-.9947.73523-1.6015.85577c-.6067.12055-1.2356.0584-1.8069-.17859-.5714-.23698-1.0597-.63814-1.403-1.15271s-.5263-1.11942-.5257-1.73801c.0015-.82798.331-1.62161.9165-2.20708.5855-.58546 1.3791-.91503 2.2071-.91653zm0 8.33429c1.0307.0006 2.0384-.3045 2.8957-.87676.8572-.57222 1.5255-1.38583 1.9204-2.33791.3948-.95209.4984-1.99988.2976-3.01084-.2007-1.01097-.6968-1.93969-1.4254-2.66871-.7286-.72901-1.6571-1.225563-2.6679-1.426848-1.0109-.201286-2.0587-.09826152-3.011.296042-.9523.394304-1.7663 1.062176-2.339 1.919136-.5726.85695-.8783 1.8645-.8783 2.89521.0022 1.38079.5515 2.70443 1.5276 3.68106s2.2995 1.52662 3.6803 1.52962z"/></g></svg>

<svg width="48" height="50" viewBox="0 0 48 50" fill="none" xmlns="http://www.w3.org/2000/svg">
<path d="M38.2693 4.17207C38.8878 4.17207 39.4924 4.35551 40.0066 4.69917C40.5208 5.04283 40.9215 5.53128 41.158 6.10272C41.3946 6.67417 41.4563 7.30293 41.3355 7.90948C41.2146 8.51602 40.9165 9.07309 40.479 9.51022C40.0415 9.94735 39.4842 10.2449 38.8775 10.3652C38.2709 10.4855 37.6421 10.4232 37.0709 10.1861C36.4997 9.94907 36.0116 9.54791 35.6684 9.0334C35.3252 8.51889 35.1423 7.91415 35.1429 7.29568C35.1444 6.46722 35.4743 5.67316 36.0604 5.08761C36.6465 4.50206 37.4408 4.17282 38.2693 4.17207ZM38.2693 12.5064C39.2999 12.5064 40.3073 12.2008 41.1642 11.6282C42.0211 11.0557 42.689 10.2419 43.0834 9.28973C43.4778 8.3376 43.581 7.2899 43.3799 6.27912C43.1788 5.26834 42.6826 4.33988 41.9538 3.61115C41.2251 2.88241 40.2966 2.38614 39.2859 2.18509C38.2751 1.98403 37.2274 2.08722 36.2753 2.48161C35.3231 2.87599 34.5093 3.54386 33.9368 4.40076C33.3642 5.25766 33.0586 6.2651 33.0586 7.29568C33.0601 8.67719 33.6096 10.0017 34.5864 10.9786C35.5633 11.9554 36.8878 12.5049 38.2693 12.5064Z" fill="#B5BD00"/>
<path d="M47.34 29.8304L46.0042 19.1548C45.8461 17.8957 45.2342 16.7376 44.2833 15.8974C43.3323 15.0572 42.1076 14.5926 40.8387 14.5908H35.6929C35.1014 14.5922 34.5147 14.6964 33.9588 14.8987C33.7102 14.9995 33.51 15.1923 33.4 15.4369C33.2899 15.6816 33.2785 15.9593 33.368 16.2122C33.4575 16.4651 33.6411 16.6737 33.8806 16.7947C34.12 16.9156 34.3969 16.9395 34.6536 16.8615C34.9868 16.7405 35.3384 16.6775 35.6929 16.6751H40.8387C41.601 16.6746 42.3372 16.9524 42.9093 17.4562C43.4813 17.9601 43.8497 18.6555 43.9453 19.4118L45.2784 30.0874C45.2977 30.234 45.2854 30.383 45.2425 30.5244C45.1995 30.6659 45.1267 30.7965 45.0291 30.9075C44.9314 31.0185 44.8112 31.1073 44.6764 31.1681C44.5416 31.2288 44.3953 31.2599 44.2475 31.2595H43.4821C43.2188 31.2588 42.965 31.3582 42.772 31.5375C42.5791 31.7168 42.4614 31.9626 42.4428 32.2253L41.4685 45.8438H35.0687L34.3203 35.349C34.3135 35.2104 34.279 35.0746 34.219 34.9496C34.159 34.8245 34.0747 34.7127 33.9709 34.6206C33.8671 34.5286 33.746 34.4582 33.6146 34.4136C33.4833 34.369 33.3444 34.3511 33.206 34.3608C33.0676 34.3706 32.9326 34.4079 32.8088 34.4705C32.6851 34.5332 32.5751 34.6199 32.4853 34.7256C32.3954 34.8313 32.3276 34.9539 32.2858 35.0862C32.244 35.2184 32.229 35.3577 32.2417 35.4958L33.0607 46.9566C33.0806 47.2191 33.1985 47.4645 33.3911 47.644C33.5837 47.8235 33.8368 47.9239 34.1 47.9253H42.4344C42.6972 47.9252 42.9504 47.8255 43.1427 47.6463C43.335 47.4671 43.4523 47.2216 43.4708 46.9594L44.4452 33.3296C44.87 33.301 45.2844 33.186 45.6632 32.9916C46.042 32.7972 46.3771 32.5276 46.6481 32.1993C46.9191 31.8709 47.1202 31.4907 47.2392 31.0819C47.3582 30.6732 47.3925 30.2444 47.34 29.8219" fill="#B5BD00"/>
<path d="M14.1443 34.6192C14.0074 34.6081 13.8697 34.6245 13.7393 34.6674C13.6089 34.7104 13.4884 34.779 13.3849 34.8693C13.2814 34.9596 13.1971 35.0697 13.1369 35.1932C13.0767 35.3166 13.0419 35.4508 13.0344 35.5879L12.3001 45.8427H5.90319L4.93447 32.2243C4.91322 31.9615 4.79398 31.7164 4.60041 31.5375C4.40684 31.3586 4.1531 31.2589 3.88951 31.2584H3.12696C2.97917 31.2583 2.83307 31.2268 2.69838 31.166C2.56368 31.1052 2.44346 31.0164 2.3457 30.9056C2.24795 30.7947 2.17488 30.6643 2.13136 30.5231C2.08785 30.3818 2.07487 30.233 2.09329 30.0863L3.42916 19.4107C3.52421 18.6542 3.89245 17.9585 4.46459 17.4545C5.03673 16.9504 5.77334 16.6729 6.53582 16.674H11.6731C11.9387 16.6789 12.2026 16.7178 12.4582 16.7898C12.5906 16.8249 12.7287 16.8335 12.8644 16.8152C13.0001 16.7969 13.1309 16.7521 13.2494 16.6832C13.3678 16.6144 13.4714 16.5229 13.5545 16.414C13.6375 16.3051 13.6983 16.1809 13.7334 16.0485C13.7684 15.9161 13.7771 15.778 13.7588 15.6423C13.7405 15.5066 13.6956 15.3758 13.6268 15.2573C13.558 15.1389 13.4665 15.0352 13.3575 14.9522C13.2486 14.8691 13.1244 14.8084 12.992 14.7733C12.5635 14.6532 12.1209 14.5905 11.6759 14.5869H6.52734C5.25857 14.5893 4.03416 15.0541 3.08335 15.8941C2.13253 16.7342 1.5205 17.8921 1.36182 19.1509L0.0231279 29.8265C-0.0284992 30.2488 0.00652003 30.6771 0.126046 31.0854C0.245572 31.4937 0.447093 31.8733 0.718297 32.2011C0.9895 32.5289 1.32469 32.7979 1.70338 32.9918C2.08207 33.1856 2.49632 33.3002 2.92079 33.3285L3.89516 46.9498C3.91373 47.2128 4.03129 47.459 4.22415 47.6387C4.41701 47.8185 4.67083 47.9185 4.93447 47.9185H13.2744C13.5379 47.9178 13.7913 47.8176 13.9841 47.638C14.1768 47.4584 14.2945 47.2126 14.3138 46.9498L15.1158 35.7263C15.1345 35.4513 15.0438 35.1801 14.8634 34.9717C14.683 34.7632 14.4276 34.6345 14.1528 34.6136" fill="#B5BD00"/>
<path d="M9.10036 4.17207C9.71883 4.17207 10.3234 4.35551 10.8376 4.69917C11.3518 5.04283 11.7525 5.53128 11.9891 6.10272C12.2256 6.67417 12.2874 7.30293 12.1665 7.90948C12.0456 8.51602 11.7476 9.07309 11.3101 9.51022C10.8726 9.94735 10.3152 10.2449 9.70857 10.3652C9.10191 10.4855 8.4732 10.4232 7.90197 10.1861C7.33074 9.94907 6.84266 9.54791 6.49946 9.0334C6.15626 8.51889 5.97338 7.91415 5.97393 7.29568C5.97543 6.46722 6.30539 5.67316 6.89147 5.08761C7.47754 4.50206 8.2719 4.17282 9.10036 4.17207ZM9.10036 12.5064C10.1309 12.5064 11.1384 12.2008 11.9953 11.6282C12.8522 11.0557 13.5201 10.2419 13.9144 9.28973C14.3088 8.3376 14.412 7.2899 14.211 6.27912C14.0099 5.26834 13.5136 4.33988 12.7849 3.61115C12.0562 2.88241 11.1277 2.38614 10.1169 2.18509C9.10614 1.98403 8.05844 2.08722 7.10631 2.48161C6.15418 2.87599 5.34037 3.54386 4.76781 4.40076C4.19525 5.25766 3.88965 6.2651 3.88965 7.29568C3.89114 8.67719 4.44061 10.0017 5.41748 10.9786C6.39436 11.9554 7.71886 12.5049 9.10036 12.5064Z" fill="#B5BD00"/>
<path d="M30.4483 31.0354C30.3534 31.1453 30.2365 31.2343 30.1052 31.2965C29.9739 31.3588 29.831 31.3929 29.6858 31.3969H28.8922C28.6294 31.3968 28.3764 31.496 28.1837 31.6746C27.991 31.8532 27.8728 32.0979 27.8529 32.3599L26.7034 47.9243H20.3065L19.1599 32.3599C19.1393 32.0982 19.0209 31.8538 18.8284 31.6753C18.6358 31.4969 18.3831 31.3975 18.1205 31.3969H17.3298C17.1841 31.3931 17.0407 31.3591 16.9089 31.2968C16.7772 31.2346 16.6598 31.1455 16.5644 31.0354C16.432 30.8813 16.3334 30.7011 16.275 30.5065C16.2167 30.3119 16.1998 30.1072 16.2255 29.9057L17.6037 17.7953C17.8155 15.9624 19.2051 14.5842 20.8488 14.5842H26.164C27.8049 14.5842 29.1972 15.9624 29.409 17.7953L30.7844 29.9C30.8089 30.1017 30.7911 30.3063 30.7323 30.5008C30.6735 30.6952 30.5748 30.8754 30.4427 31.0297L30.4483 31.0354ZM32.8518 29.66L31.4679 17.5609C31.1431 14.6746 28.8555 12.4971 26.1583 12.4971H20.8431C18.1488 12.5027 15.864 14.6887 15.5335 17.5666L14.1525 29.6571C14.093 30.1503 14.1377 30.6504 14.2836 31.1253C14.4296 31.6001 14.6736 32.039 14.9998 32.4136C15.269 32.722 15.597 32.9738 15.9645 33.1542C16.332 33.3346 16.7318 33.4399 17.1405 33.4642L18.2928 49.0342C18.3107 49.2967 18.4278 49.5425 18.6203 49.7219C18.8128 49.9012 19.0662 50.0007 19.3293 50.0001H27.6778C27.9411 50.0008 28.195 49.9014 28.3879 49.7221C28.5808 49.5428 28.6985 49.2969 28.7171 49.0342L29.8665 33.4642C30.2754 33.4406 30.6754 33.3355 31.043 33.155C31.4106 32.9746 31.7385 32.7225 32.0073 32.4136C32.3346 32.0396 32.5792 31.6008 32.7252 31.1258C32.8712 30.6508 32.9153 30.1503 32.8546 29.6571" fill="#B5BD00"/>
<path d="M23.5048 2.08711C24.1234 2.08655 24.7282 2.26951 25.2428 2.61283C25.7574 2.95615 26.1585 3.44441 26.3955 4.0158C26.6325 4.5872 26.6946 5.21605 26.5741 5.82278C26.4535 6.42951 26.1557 6.98685 25.7183 7.42426C25.2809 7.86167 24.7236 8.15949 24.1168 8.28003C23.5101 8.40058 22.8812 8.33843 22.3099 8.10144C21.7385 7.86446 21.2502 7.4633 20.9069 6.94873C20.5636 6.43416 20.3806 5.82931 20.3812 5.21072C20.3827 4.38274 20.7122 3.58911 21.2977 3.00364C21.8832 2.41818 22.6768 2.08861 23.5048 2.08711ZM23.5048 10.4214C24.5355 10.422 25.5432 10.1169 26.4005 9.54464C27.2577 8.97242 27.926 8.15881 28.3209 7.20673C28.7157 6.25464 28.8193 5.20685 28.6185 4.19589C28.4178 3.18492 27.9217 2.2562 27.1931 1.52718C26.4645 0.79817 25.536 0.301617 24.5252 0.100332C23.5143 -0.100954 22.4665 0.00207048 21.5142 0.396374C20.5619 0.790678 19.7479 1.45855 19.1752 2.31551C18.6026 3.17246 18.2969 4.18001 18.2969 5.21072C18.2991 6.59151 18.8484 7.91515 19.8245 8.89178C20.8006 9.86841 22.124 10.4184 23.5048 10.4214Z" fill="#B5BD00"/>
</svg>
